svg/icon/dcn.svg

<svg xmlns="http://www.w3.org/2000/svg" xmlns:xlink="http://www.w3.org/1999/xlink" width="32" height="32" viewBox="0 0 32 32"><defs><linearGradient id="dcn-c" x1="50%" x2="50%" y1="0%" y2="100%"><stop offset="0%" stop-color="#FFF" stop-opacity=".5"/><stop offset="100%" stop-opacity=".5"/></linearGradient><circle id="dcn-b" cx="16" cy="15" r="15"/><filter id="dcn-a" width="111.7%" height="111.7%" x="-5.8%" y="-4.2%" filterUnits="objectBoundingBox"><feOffset dy=".5" in="SourceAlpha" result="shadowOffsetOuter1"/><feGaussianBlur in="shadowOffsetOuter1" result="shadowBlurOuter1" stdDeviation=".5"/><feComposite in="shadowBlurOuter1" in2="SourceAlpha" operator="out" result="shadowBlurOuter1"/><feColorMatrix in="shadowBlurOuter1" values="0 0 0 0 0 0 0 0 0 0 0 0 0 0 0 0 0 0 0.199473505 0"/></filter><path id="dcn-e" d="M10.9976094,29.1456263 C9.00064957,28.4394196 7.19784603,27.3223232 5.69079345,25.8959319 C5.79692161,25.7130852 5.90118384,25.5253678 5.916624,25.5009148 C8.15210614,21.9634698 10.1599117,18.3028929 11.671983,14.3917665 C13.2759786,10.2427005 14.5590601,5.98500824 15.7826372,1.70959615 C15.8917972,1.32841484 16.0215581,0.953085165 16.1417162,0.575035714 C16.270328,0.723552198 16.3176033,0.86118956 16.3568353,1.0010522 C17.1244846,3.74390934 17.867101,6.49418407 18.6633945,9.22863462 C20.1139095,14.2095412 22.1545451,18.9347885 24.8582662,23.36325 C25.1622198,23.8611348 25.6716176,24.6808161 26.3864595,25.8222942 C24.8124856,27.3332678 22.9095869,28.5041934 20.7958774,29.2169569 C18.6927312,22.8014284 17.1392813,18.0836543 16.1355277,15.0636346 L15.9915678,15.0611621 C14.8959652,18.145769 13.2313124,22.8405904 10.9976094,29.1456263 Z M16.3042648,0.0457093263 C16.2657729,0.0454885834 16.2272305,0.0454083022 16.188638,0.0454690844 L16.232283,0.00176203722 L16.2368573,0.00183216303 L16.3042648,0.0457093263 Z"/><filter id="dcn-d" width="116.9%" height="112%" x="-8.5%" y="-4.3%" filterUnits="objectBoundingBox"><feOffset dy=".5" in="SourceAlpha" result="shadowOffsetOuter1"/><feGaussianBlur in="shadowOffsetOuter1" result="shadowBlurOuter1" stdDeviation=".5"/><feColorMatrix in="shadowBlurOuter1" values="0 0 0 0 0 0 0 0 0 0 0 0 0 0 0 0 0 0 0.204257246 0"/></filter></defs><g fill="none" fill-rule="evenodd"><use fill="#000" filter="url(#dcn-a)" xlink:href="#dcn-b"/><use fill="#136485" xlink:href="#dcn-b"/><use fill="url(#dcn-c)" style="mix-blend-mode:soft-light" xlink:href="#dcn-b"/><circle cx="16" cy="15" r="14.5" stroke="#000" stroke-opacity=".097"/><g><use fill="#000" filter="url(#dcn-d)" xlink:href="#dcn-e"/><use fill="#FFF" xlink:href="#dcn-e"/></g></g></svg>

<svg xmlns="http://www.w3.org/2000/svg" xmlns:xlink="http://www.w3.org/1999/xlink" width="32" height="32" viewBox="0 0 32 32"><defs><linearGradient id="c" x1="50%" x2="50%" y1="0%" y2="100%"><stop offset="0%" stop-color="#FFF" stop-opacity=".5"/><stop offset="100%" stop-opacity=".5"/></linearGradient><circle id="b" cx="16" cy="15" r="15"/><filter id="a" width="111.7%" height="111.7%" x="-5.8%" y="-4.2%" filterUnits="objectBoundingBox"><feOffset dy=".5" in="SourceAlpha" result="shadowOffsetOuter1"/><feGaussianBlur in="shadowOffsetOuter1" result="shadowBlurOuter1" stdDeviation=".5"/><feComposite in="shadowBlurOuter1" in2="SourceAlpha" operator="out" result="shadowBlurOuter1"/><feColorMatrix in="shadowBlurOuter1" values="0 0 0 0 0 0 0 0 0 0 0 0 0 0 0 0 0 0 0.199473505 0"/></filter><path id="e" d="M10.998 29.146a14.999 14.999 0 0 1-5.307-3.25c.106-.183.21-.37.226-.395 2.235-3.538 4.243-7.198 5.755-11.11 1.604-4.148 2.887-8.406 4.11-12.681.11-.382.24-.757.36-1.135.128.149.176.286.215.426.767 2.743 1.51 5.493 2.306 8.228 1.45 4.98 3.492 9.706 6.195 14.134.304.498.814 1.318 1.528 2.46a14.996 14.996 0 0 1-5.59 3.394 4039.55 4039.55 0 0 0-4.66-14.153l-.144-.003c-1.096 3.085-2.76 7.78-4.994 14.085zm5.306-29.1h-.115l.043-.044h.005l.067.044z"/><filter id="d" width="116.9%" height="112%" x="-8.5%" y="-4.3%" filterUnits="objectBoundingBox"><feOffset dy=".5" in="SourceAlpha" result="shadowOffsetOuter1"/><feGaussianBlur in="shadowOffsetOuter1" result="shadowBlurOuter1" stdDeviation=".5"/><feColorMatrix in="shadowBlurOuter1" values="0 0 0 0 0 0 0 0 0 0 0 0 0 0 0 0 0 0 0.204257246 0"/></filter></defs><g fill="none" fill-rule="evenodd"><use fill="#000" filter="url(#a)" xlink:href="#b"/><use fill="#136485" xlink:href="#b"/><use fill="url(#c)" style="mix-blend-mode:soft-light" xlink:href="#b"/><circle cx="16" cy="15" r="14.5" stroke="#000" stroke-opacity=".097"/><use fill="#000" filter="url(#d)" xlink:href="#e"/><use fill="#FFF" xlink:href="#e"/></g></svg>
